Catalina-dark/actions/22/office-chart-polar.svg

<svg xmlns="http://www.w3.org/2000/svg" viewBox="0 0 22 22">
  <defs id="defs3051">
    <style type="text/css" id="current-color-scheme">
      .ColorScheme-Text {
        color:#f2f2f2;
      }
      </style>
  </defs>
 <path 
     style="fill:currentColor;fill-opacity:1;stroke:none" 
     d="M 11.5 2 C 11.222995 2 11 2.2229948 11 2.5 C 11 2.7770052 11.222995 3 11.5 3 C 11.777005 3 12 2.7770052 12 2.5 C 12 2.2229948 11.777005 2 11.5 2 z M 4.5 3 C 4.2229948 3 4 3.2229948 4 3.5 C 4 3.7770052 4.2229948 4 4.5 4 C 4.7770052 4 5 3.7770052 5 3.5 C 5 3.2229948 4.7770052 3 4.5 3 z M 18.5 3 C 18.222995 3 18 3.2229948 18 3.5 C 18 3.7770052 18.222995 4 18.5 4 C 18.777005 4 19 3.7770052 19 3.5 C 19 3.2229948 18.777005 3 18.5 3 z M 11.5 4 C 11.222995 4 11 4.2229948 11 4.5 C 11 4.7770052 11.222995 5 11.5 5 C 11.777005 5 12 4.7770052 12 4.5 C 12 4.2229948 11.777005 4 11.5 4 z M 6.5 5 C 6.2229948 5 6 5.2229948 6 5.5 C 6 5.7770052 6.2229948 6 6.5 6 C 6.7770052 6 7 5.7770052 7 5.5 C 7 5.2229948 6.7770052 5 6.5 5 z M 11 5 C 9.0985593 5 7.4122069 5.8783098 6.3144531 7.25 L 9.4433594 9.7539062 C 9.8092923 9.2970958 10.366524 9 11 9 L 11 8.5 L 11 6.5 L 11 5 z M 11 6.5 C 11 6.7770052 11.222995 7 11.5 7 C 11.777005 7 12 6.7770052 12 6.5 C 12 6.2229948 11.777005 6 11.5 6 C 11.222995 6 11 6.2229948 11 6.5 z M 11 8.5 C 11 8.7770052 11.222995 9 11.5 9 C 11.777005 9 12 8.7770052 12 8.5 C 12 8.2229948 11.777005 8 11.5 8 C 11.222995 8 11 8.2229948 11 8.5 z M 14.708984 5.0644531 L 12.058594 9.3066406 C 12.578053 9.6314962 12.928885 10.187907 12.982422 10.833984 L 17.970703 10.417969 C 17.785146 8.1521669 16.53104 6.2022357 14.708984 5.0644531 z M 3.5 10 C 3.2229948 10 3 10.222995 3 10.5 C 3 10.777005 3.2229948 11 3.5 11 C 3.7770052 11 4 10.777005 4 10.5 C 4 10.222995 3.7770052 10 3.5 10 z M 5.5 10 C 5.2229948 10 5 10.222995 5 10.5 C 5 10.777005 5.2229948 11 5.5 11 C 5.7770052 11 6 10.777005 6 10.5 C 6 10.222995 5.7770052 10 5.5 10 z M 7.5 10 C 7.2229948 10 7 10.222995 7 10.5 C 7 10.777005 7.2229948 11 7.5 11 C 7.7770052 11 8 10.777005 8 10.5 C 8 10.222995 7.7770052 10 7.5 10 z M 9.5 10 C 9.2229948 10 9 10.222995 9 10.5 C 9 10.777005 9.2229948 11 9.5 11 C 9.7770052 11 10 10.777005 10 10.5 C 10 10.222995 9.7770052 10 9.5 10 z M 11.5 10 C 11.222995 10 11 10.222995 11 10.5 C 11 10.777005 11.222995 11 11.5 11 C 11.777005 11 12 10.777005 12 10.5 C 12 10.222995 11.777005 10 11.5 10 z M 11.5 12 C 11.222995 12 11 12.222995 11 12.5 C 11 12.777005 11.222995 13 11.5 13 C 11.777005 13 12 12.777005 12 12.5 C 12 12.222995 11.777005 12 11.5 12 z M 13.5 12 C 13.222995 12 13 12.222995 13 12.5 C 13 12.777005 13.222995 13 13.5 13 C 13.777005 13 14 12.777005 14 12.5 C 14 12.222995 13.777005 12 13.5 12 z M 9.5839844 12.416016 L 7.4609375 14.539062 C 8.3646875 15.442813 9.615 16 11 16 L 11 14.5 L 11 13 C 10.446 13 9.9454844 12.777516 9.5839844 12.416016 z M 11 14.5 C 11 14.777005 11.222995 15 11.5 15 C 11.777005 15 12 14.777005 12 14.5 C 12 14.222995 11.777005 14 11.5 14 C 11.222995 14 11 14.222995 11 14.5 z M 15.5 14 C 15.222995 14 15 14.222995 15 14.5 C 15 14.777005 15.222995 15 15.5 15 C 15.777005 15 16 14.777005 16 14.5 C 16 14.222995 15.777005 14 15.5 14 z M 6.5 16 C 6.2229948 16 6 16.222995 6 16.5 C 6 16.777005 6.2229948 17 6.5 17 C 6.7770052 17 7 16.777005 7 16.5 C 7 16.222995 6.7770052 16 6.5 16 z M 11.5 16 C 11.222995 16 11 16.222995 11 16.5 C 11 16.777005 11.222995 17 11.5 17 C 11.777005 17 12 16.777005 12 16.5 C 12 16.222995 11.777005 16 11.5 16 z M 17.5 16 C 17.222995 16 17 16.222995 17 16.5 C 17 16.777005 17.222995 17 17.5 17 C 17.777005 17 18 16.777005 18 16.5 C 18 16.222995 17.777005 16 17.5 16 z M 4.5 18 C 4.2229948 18 4 18.222995 4 18.5 C 4 18.777005 4.2229948 19 4.5 19 C 4.7770052 19 5 18.777005 5 18.5 C 5 18.222995 4.7770052 18 4.5 18 z M 11.5 18 C 11.222995 18 11 18.222995 11 18.5 C 11 18.777005 11.222995 19 11.5 19 C 11.777005 19 12 18.777005 12 18.5 C 12 18.222995 11.777005 18 11.5 18 z "
     class="ColorScheme-Text"
     />
</svg>

<svg viewBox="0 0 22 22" xmlns="http://www.w3.org/2000/svg">
<defs>
<style id="current-color-scheme" type="text/css">.ColorScheme-Text {
        color:#f2f2f2;
      }</style>
</defs>
<path class="ColorScheme-Text" d="m11.5 2c-0.277 0-0.5 0.22299-0.5 0.5s0.223 0.5 0.5 0.5 0.5-0.22299 0.5-0.5-0.223-0.5-0.5-0.5zm-7 1c-0.27701 0-0.5 0.22299-0.5 0.5s0.22299 0.5 0.5 0.5 0.5-0.22299 0.5-0.5-0.22299-0.5-0.5-0.5zm14 0c-0.277 0-0.5 0.22299-0.5 0.5s0.223 0.5 0.5 0.5 0.5-0.22299 0.5-0.5-0.223-0.5-0.5-0.5zm-7 1c-0.277 0-0.5 0.22299-0.5 0.5s0.223 0.5 0.5 0.5 0.5-0.22299 0.5-0.5-0.223-0.5-0.5-0.5zm-5 1c-0.27701 0-0.5 0.22299-0.5 0.5s0.22299 0.5 0.5 0.5 0.5-0.22299 0.5-0.5-0.22299-0.5-0.5-0.5zm4.5 0c-1.9014 0-3.5878 0.87831-4.6855 2.25l3.1289 2.5039c0.36593-0.45681 0.92316-0.75391 1.5566-0.75391v-4zm0 1.5c0 0.27701 0.223 0.5 0.5 0.5s0.5-0.22299 0.5-0.5-0.223-0.5-0.5-0.5-0.5 0.22299-0.5 0.5zm0 2c0 0.27701 0.223 0.5 0.5 0.5s0.5-0.22299 0.5-0.5-0.223-0.5-0.5-0.5-0.5 0.22299-0.5 0.5zm3.709-3.4355-2.6504 4.2422c0.51946 0.32486 0.87029 0.88127 0.92383 1.5273l4.9883-0.41602c-0.18556-2.2658-1.4397-4.2157-3.2617-5.3535zm-11.209 4.9355c-0.27701 0-0.5 0.223-0.5 0.5s0.22299 0.5 0.5 0.5 0.5-0.223 0.5-0.5-0.22299-0.5-0.5-0.5zm2 0c-0.27701 0-0.5 0.223-0.5 0.5s0.22299 0.5 0.5 0.5 0.5-0.223 0.5-0.5-0.22299-0.5-0.5-0.5zm2 0c-0.27701 0-0.5 0.223-0.5 0.5s0.22299 0.5 0.5 0.5 0.5-0.223 0.5-0.5-0.22299-0.5-0.5-0.5zm2 0c-0.27701 0-0.5 0.223-0.5 0.5s0.22299 0.5 0.5 0.5 0.5-0.223 0.5-0.5-0.22299-0.5-0.5-0.5zm2 0c-0.277 0-0.5 0.223-0.5 0.5s0.223 0.5 0.5 0.5 0.5-0.223 0.5-0.5-0.223-0.5-0.5-0.5zm0 2c-0.277 0-0.5 0.223-0.5 0.5s0.223 0.5 0.5 0.5 0.5-0.223 0.5-0.5-0.223-0.5-0.5-0.5zm2 0c-0.277 0-0.5 0.223-0.5 0.5s0.223 0.5 0.5 0.5 0.5-0.223 0.5-0.5-0.223-0.5-0.5-0.5zm-3.916 0.41602-2.123 2.123c0.90375 0.90375 2.1541 1.4609 3.5391 1.4609v-3c-0.554 0-1.0545-0.22248-1.416-0.58398zm1.416 2.084c0 0.277 0.223 0.5 0.5 0.5s0.5-0.223 0.5-0.5-0.223-0.5-0.5-0.5-0.5 0.223-0.5 0.5zm4.5-0.5c-0.277 0-0.5 0.223-0.5 0.5s0.223 0.5 0.5 0.5 0.5-0.223 0.5-0.5-0.223-0.5-0.5-0.5zm-9 2c-0.27701 0-0.5 0.223-0.5 0.5s0.22299 0.5 0.5 0.5 0.5-0.223 0.5-0.5-0.22299-0.5-0.5-0.5zm5 0c-0.277 0-0.5 0.223-0.5 0.5s0.223 0.5 0.5 0.5 0.5-0.223 0.5-0.5-0.223-0.5-0.5-0.5zm6 0c-0.277 0-0.5 0.223-0.5 0.5s0.223 0.5 0.5 0.5 0.5-0.223 0.5-0.5-0.223-0.5-0.5-0.5zm-13 2c-0.27701 0-0.5 0.223-0.5 0.5s0.22299 0.5 0.5 0.5 0.5-0.223 0.5-0.5-0.22299-0.5-0.5-0.5zm7 0c-0.277 0-0.5 0.223-0.5 0.5s0.223 0.5 0.5 0.5 0.5-0.223 0.5-0.5-0.223-0.5-0.5-0.5z" fill="currentColor"/>
</svg>
